X: 23575
T: Lightly Swims The Swan
R: waltz
M: 3/4
K: Dmajor
A d>c|B3e A>G|A3A g>f|e3A e>a|f3A d>c|
B3e A>G|A3A g>f|e3d a>d|d3:|
|:A a>c|d3A a>G|A3A B<d|e3A g>f|f3A d>c|
B3e A>G|A3A g>f|e3d a>d|d3:|

